X:4
M:6/8
L:1/8
Q:3/8=70
K:D Minor
|:A|f>ef g2^g|a>ba/^g/ a2 z/A/|
f>ef g2^g|a>ba/^g/ a2 z/a/4=g/4|f>ef g2 z/B/|A>BA A<F z/F/4G/4|

